X:1
T:Title
%%score 1 2 3
L:1/8
M:3/2
K:C
V:1 treble nm="Part_1"
V:2 treble-8 nm="Part_2"
V:3 treble-8 nm="Part_3"
V:1
 G4 A4 G4 | A2 c2 B2 G3 FFE | G4 z4 c2 d2 | e4 d4 c4 | d2 e3 d d2 c2 B2 | d4 d4 z4 | G4 A2 F2 G4 | %7
 A4 B6 A2 | c2 B2 G2 A2 E2 D2 | G12 || G4 G4 A4 | _B4 B4 A4 | c4 c4 B2 G2 | A4 B4 z4 | B6 c2 d4 | %15
 d4 c2 A2 B4 | A4 c4 c2 d2 | B4 A6 G2 | B4 z4 G4 | A4 G4 A4 | B6 A2 c2 B2 | G2 A2 G2 G3 F E2 | %22
 G12 || G4 G4 F2 D2 | E4 D4 E2 F2 | G4 A2 G2 F3 E | G4 z4 G4 | G4 A4 B4 | B4 A4 c4 | c2 _B6 A2 G2 | %30
 _B4 z4 G4- | G4 A2 F2 G4 | A2 c2 B2 G2 A2 F2 | G12 || d4 d4 _e4 | d2 _B2 c4 d4 | c2 d2 _B2 G2 A4 | %37
 _B4 z4 d4- | d4 _B4 c4 | _B4 A8 | G4 A4 _B4- | B2 c4 _B2 A2 G2 | _B4 z4 G4 | A4 G8 | %44
 A4 _B2 A2 c2 B2 | G6 F2 F2 E2 | G12 || d4 d4 c2 B2 | A3 G B4 A4 | G2 E2 F4 E4 | D4 z4 d4 | %51
 c4 G4 F4 | G4 c6 B2 | B4 z4 A4 | G2 F2 A4 B4 | c2 d2 B4 A4 | G2 F2 E4 D4- | D4 z4 d4 | %58
 c4 B4 A2 c2 | _B2 G4 G2 F2 E2 | G12 || z4 z4 E4 | G8 A4 | F8 A4 | G8 E4 | G8 A4 | %66
 F2 _B2 A2 G2 F3 E | G4 z4 B2 c2 | d8 c4 | B8 A4 | G8 A4 | F4 A8 |[M:2/2] G4 F4 | G8 |] %74
V:2
 d4 f2 e2 d2 cB | A4 G4 c4 | d4 e2 f2 g4 | z2 g4 f2 g2 e2 | d2 c4 d2 A4 | B4 G8 | c4 f4 e2 d2 | %7
 cB A2 G4 z2 e2 | f2 g2 d2 c4 B2 | d12 || d4 e8 | f6 g2 f2 e2 | g4 c4 g4 | f2 e2 d6 G2 | G4 z4 G4 | %15
 B4 A4 G4 | d4 c2 B2 A4 | G4 d8 | G8 c4 | f4 e2 d4 c2 | d2 g4 f4 d2 | e4 d4 c4 | d12 || d6 e2 f4 | %24
 g4 G2 d2 c4 | d2 e4 d4 c2 | d6 B2 c2 d2 | e4 A4 G4 | z4 f4 e4 | g4 f2 d2 e4 | f4 g2 f2 d4 | %31
 e6 d2 c4 | f2 e4 d2 c2 B2 | d12 || G8 g4 | f4 g4 a4 | g2 f2 d4 e4 | f4 g2 _e2 f4 | g2 f2 d4 c4 | %39
 d6 c2 A4 | d2 e2 f6 e2 | g4 G4 z4 | G8 c4 | z2 A2 c2 G4 d2 | e2 f2 g4 e2 d2- | d6 c4 B2 | d12 || %47
 G4 B4 c4 | d4 G4 A2 B2 | c4 d4 A4 | B4 G8 | z2 d2 c2 B2 d4 | e8 e4 | d4 G4 z4 | d4 e2 f2 g2 a2 | %55
 f4 g4 e2 f2 | d4 g4 G4 | z4 d6 e2 | f2 e2 g4 e2 f2- | f2 e2 d4 c4 | d12 || z4 z4 c4 | %62
 d2 c2 e6 f2 | d4 z2 d4 c2 | G4 c2 G2 g2 e2 | c2 G2 z2 d2 e2 f2 | d4 A2 d4 c2 | e2 d4 G2 G4 | %68
 z2 d2 c2 G2 A4 | z2 d2 G2 d2 z2 d2 | e2 d4 g2 f4 | g4 e6 f2 |[M:2/2] d4 c4 | d8 |] %74
V:3
 G4 F4 G4 | c4 d2 B2 A4 | G4 c6 B2 | c4 d4 e4 | f2 g4 f2 e4 | d4 z4 g2 f2 | e4 d4 c2 B2 | %7
 c4 d6 c2 | A2 G2 B2 c2 A4 | G12 || G4 c8 | _B4 d8 | c2 d2 e8 | d4 G8 | z4 g6 f2 | d4 e2 f2 g4 | %16
 a8 f4 | g4 f6 e2 | g8 e4 | d2 c4 B2 A4 | G4 E2 F4 G2- | G2 c2 B2 G2 A4 | G12 || G8 d4 | c4 B4 A4 | %25
 G2 c4 B2 A4 | G8 z4 | c8 B4 | d8 A4 | e4 d2 _B2 c4 | _B4 G8 | c6 d2 e4 | d4 c2 B4 A2 | G12 || %34
 d4 g4 c4 | d4 _e4 d2 f2 | _e2 d4 _B2 c4 | _B4 _e4 d4 | G4 z4 A4 | G4 F8 | G4 d8 | _e4 d4 c4 | %42
 _B8 _e4 | d2 c2 _e2 d2 _B4 | A4 G2 c4 d2 | _B2 G2 B2 c2 A4 | G12 || d4 d4 e4 | f4 g4 f2 d2 | %49
 e4 d2 B2 c4 | d4 z4 g4 | f4 e4 d4 | c6 B2 A2 G2 | B4 z4 d4 | B4 c4 B4 | A4 G4 A4 | B4 c4 B4- | %57
 B4 z4 G4 | A4 G4 A4 | _B2 c2 B2 G2 A4 | G12 || z4 z4 A4 | G2 c4 B2 A4 | z2 d4 e2 f4 | %64
 g2 e4 d2 c4 | e2 d2 c2 B2 A2 d2- | d2 G2 c2 _B2 A4 | G6 g4 e2 | d4 z2 B2 c2 A2 | G4 z2 G2 A2 B2 | %70
 c2 B2 G4 z2 c2- | c2 d2 c2 A2 c2 d2 |[M:2/2] B4 A4 | G8 |] %74

